assets/icons/bowtie/uE62E-edit-delete.svg

<svg xmlns="http://www.w3.org/2000/svg" viewBox="0 0 448 448"><path d="M160 352h-32v-192h32v192zm64-192h-32v192h32v-192zm64 0h-32v192h32v-192zm96-96v32h-32v320c0 17.672-14.326 32-32 32h-224c-17.674 0-32-14.328-32-32v-320h-32v-32h96v-32c0-17.674 14.326-32 32-32h96c17.674 0 32 14.326 32 32v32h96zm-224 0h96v-32h-96v32zm160 32h-224v320h224v-320z"/></svg>

<svg xmlns="http://www.w3.org/2000/svg" viewBox="0 0 448 448"><path d="M160 352h-32V160h32v192zm64-192h-32v192h32V160zm64 0h-32v192h32V160zm96-96v32h-32v320c0 17.672-14.326 32-32 32H96c-17.674 0-32-14.328-32-32V96H32V64h96V32c0-17.674 14.326-32 32-32h96c17.674 0 32 14.326 32 32v32h96zm-224 0h96V32h-96v32zm160 32H96v320h224V96z"/></svg>
